X:2
T:New Year Waltz
C:Gordon Gunn (1993)
A:Scotland
D:Moving Cloud / Foxglove / Green Linnet GLCD 1186
N:medley, after Shelly River Waltz
Z:Simplified and transcribed by Moshe Braner, January 2000
R:Waltz
M:3/4
L:1/8
K:Bb
F2 \
|: "Bb"B2-BcBA | "Eb"GABcBG | "Bb"F2-FGBc |     d2B2B2 |\
   "Eb"g2-gagf | "Bb"defdcd |  "F"c4   B2 | "Eb"G4 ba  |
   "Eb"g2-gagf | "Bb"defdcd |  "F"c4   B2 | "Eb"G4 F2  |\
   "Bb"B2-BcBA | "Eb"GABcBG | "Bb"F2-FGBc |1    B4 F2 :|2 B4 ba ||
|: "Eb"g2-gagf | "Bb"defdcd |  "F"c4   B2 | "Eb"G4 ba  |\
   "Eb"g2-gagf | "Bb"defdcd |  "F"c4   d2 |     f4 ba  |
   "Eb"g2-gagf | "Bb"defdcd |  "F"c4   B2 | "Eb"G4 F2  |\
   "Bb"B2-BcBA | "Eb"GABcBG | "Bb"F2-FGBc |1    B4 ba :|2 B4 F2 ||
